icons/breezeLight/actions/24/draw-text.svg

<svg viewBox="0 0 24 24" xmlns="http://www.w3.org/2000/svg"><path d="m4 4v16h16v-16zm1 1h14v14h-14z" fill="#4d4d4d"/><circle cx="4.5" cy="19.5" fill="#da4453" fill-rule="evenodd" r="1.5"/><path d="m7 7v2h4v8h2v-8h4v-2z" fill="#4d4d4d"/></svg>

<?xml version="1.0" encoding="UTF-8" standalone="no"?>
<svg
   xmlns:dc="http://purl.org/dc/elements/1.1/"
   xmlns:cc="http://creativecommons.org/ns#"
   xmlns:rdf="http://www.w3.org/1999/02/22-rdf-syntax-ns#"
   xmlns:svg="http://www.w3.org/2000/svg"
   xmlns="http://www.w3.org/2000/svg"
   xmlns:sodipodi="http://sodipodi.sourceforge.net/DTD/sodipodi-0.dtd"
   xmlns:inkscape="http://www.inkscape.org/namespaces/inkscape"
   viewBox="0 0 24 24"
   version="1.1"
   id="svg6"
   sodipodi:docname="draw-rectangle — копия.svg"
   inkscape:version="1.0 (4035a4fb49, 2020-05-01)">
  <metadata
     id="metadata10">
    <rdf:RDF>
      <cc:Work
         rdf:about="">
        <dc:format>image/svg+xml</dc:format>
        <dc:type
           rdf:resource="http://purl.org/dc/dcmitype/StillImage" />
        <dc:title />
      </cc:Work>
    </rdf:RDF>
  </metadata>
  <sodipodi:namedview
     pagecolor="#ffffff"
     bordercolor="#666666"
     inkscape:document-rotation="0"
     borderopacity="1"
     objecttolerance="10"
     gridtolerance="10"
     guidetolerance="10"
     inkscape:pageopacity="0"
     inkscape:pageshadow="2"
     inkscape:window-width="1513"
     inkscape:window-height="1198"
     id="namedview8"
     showgrid="true"
     inkscape:zoom="55.625733"
     inkscape:cx="11.252422"
     inkscape:cy="10.813611"
     inkscape:window-x="524"
     inkscape:window-y="215"
     inkscape:window-maximized="0"
     inkscape:current-layer="svg6">
    <inkscape:grid
       type="xygrid"
       id="grid864"
       empspacing="4" />
  </sodipodi:namedview>
  <defs
     id="defs3051">
    <style
       type="text/css"
       id="current-color-scheme">
      .ColorScheme-Text {
        color:#4d4d4d;
      }
      </style>
  </defs>
  <path
     style="fill:currentColor;fill-opacity:1;stroke:none"
     d="M 4 4 L 4 20 L 20 20 L 20 4 L 4 4 z M 5 5 L 19 5 L 19 19 L 5 19 L 5 5 z "
     class="ColorScheme-Text"
     id="path4" />
  <circle
     r="1.5"
     cy="19.5"
     cx="4.5"
     id="path832"
     style="fill:#da4453;fill-rule:evenodd;stroke-width:1" />
  <path
     sodipodi:nodetypes="ccccccccc"
     id="path865"
     d="m 7,7 v 2 h 4 v 8 h 2 V 9 h 4 V 7 Z"
     style="fill:#4d4d4d;fill-opacity:1;stroke:none;stroke-opacity:1" />
</svg>
